apps/16/rhythmbox.svg

<?xml version="1.0" encoding="UTF-8" standalone="no"?>
<!-- Created with Inkscape (http://www.inkscape.org/) -->

<svg
   xmlns:dc="http://purl.org/dc/elements/1.1/"
   xmlns:cc="http://creativecommons.org/ns#"
   xmlns:rdf="http://www.w3.org/1999/02/22-rdf-syntax-ns#"
   xmlns:svg="http://www.w3.org/2000/svg"
   xmlns="http://www.w3.org/2000/svg"
   xmlns:sodipodi="http://sodipodi.sourceforge.net/DTD/sodipodi-0.dtd"
   xmlns:inkscape="http://www.inkscape.org/namespaces/inkscape"
   version="1.1"
   width="16"
   height="16"
   id="svg2"
   inkscape:version="0.48.4 r9939"
   sodipodi:docname="rhythmbox.svg">
  <sodipodi:namedview
     pagecolor="#ffffff"
     bordercolor="#666666"
     borderopacity="1"
     objecttolerance="10"
     gridtolerance="10"
     guidetolerance="10"
     inkscape:pageopacity="0"
     inkscape:pageshadow="2"
     inkscape:window-width="1920"
     inkscape:window-height="1017"
     id="namedview6"
     showgrid="true"
     inkscape:zoom="22.627417"
     inkscape:cx="12.675171"
     inkscape:cy="7.5572329"
     inkscape:window-x="-5"
     inkscape:window-y="26"
     inkscape:window-maximized="1"
     inkscape:current-layer="svg2"
     inkscape:snap-global="true"
     inkscape:snap-bbox="true"
     inkscape:bbox-paths="true"
     inkscape:bbox-nodes="true"
     inkscape:snap-bbox-edge-midpoints="true"
     inkscape:snap-bbox-midpoints="true"
     inkscape:object-paths="true"
     inkscape:snap-intersection-paths="true"
     inkscape:object-nodes="true"
     inkscape:snap-smooth-nodes="true"
     inkscape:snap-midpoints="true"
     inkscape:snap-object-midpoints="true"
     inkscape:snap-center="true">
    <inkscape:grid
       type="xygrid"
       id="grid2982"
       empspacing="5"
       visible="true"
       enabled="true"
       snapvisiblegridlinesonly="true" />
  </sodipodi:namedview>
  <defs
     id="defs4" />
  <metadata
     id="metadata7">
    <rdf:RDF>
      <cc:Work
         rdf:about="">
        <dc:format>image/svg+xml</dc:format>
        <dc:type
           rdf:resource="http://purl.org/dc/dcmitype/StillImage" />
        <dc:title />
      </cc:Work>
    </rdf:RDF>
  </metadata>
  <path
     id="path3807"
     d="M 5,1 C 3.892,1 3,1.892 3,3 l 0,10 c 0,1.108 0.892,2 2,2 l 6,0 c 1.108,0 2,-0.892 2,-2 L 13,3 C 13,1.892 12.108,1 11,1 L 5,1 z M 8,3 C 9.6568542,3 11,4.3431458 11,6 11,7.6568542 9.6568542,9 8,9 6.3431458,9 5,7.6568542 5,6 5,4.3431458 6.3431458,3 8,3 z M 8,5 C 7.4477159,5 7,5.4477159 7,6 7,6.5522841 7.4477159,7 8,7 8.5522841,7 9,6.5522841 9,6 9,5.4477159 8.5522841,5 8,5 z m 2,7 1,0 0,1 -1,0 0,-1 z"
     style="color:#000000;fill:#27303a;fill-opacity:0.75328081999999996;fill-rule:nonzero;stroke:none;stroke-width:1;marker:none;visibility:visible;display:inline;overflow:visible;enable-background:accumulate"
     inkscape:connector-curvature="0" />
  <path
     style="font-size:medium;font-style:normal;font-variant:normal;font-weight:normal;font-stretch:normal;text-indent:0;text-align:start;text-decoration:none;line-height:normal;letter-spacing:normal;word-spacing:normal;text-transform:none;direction:ltr;block-progression:tb;writing-mode:lr-tb;text-anchor:start;baseline-shift:baseline;color:#000000;fill:#f1f3f5;fill-opacity:0.90288714000000003;fill-rule:nonzero;stroke:none;stroke-width:2;marker:none;visibility:visible;display:inline;overflow:visible;enable-background:accumulate;font-family:Sans;-inkscape-font-specification:Sans;opacity:0.58089497999999995"
     d="M 5,0 C 3.3552972,0 2,1.3552972 2,3 l 0,10 c 0,1.644703 1.3552972,3 3,3 l 6,0 c 1.644703,0 3,-1.355297 3,-3 L 14,3 C 14,1.3552972 12.644703,0 11,0 z m 0,1 6,0 c 1.108,0 2,0.892 2,2 l 0,10 c 0,1.108 -0.892,2 -2,2 L 5,15 C 3.892,15 3,14.108 3,13 L 3,3 C 3,1.892 3.892,1 5,1 z M 8,3 C 6.3431458,3 5,4.3431458 5,6 5,7.6568542 6.3431458,9 8,9 9.6568542,9 11,7.6568542 11,6 11,4.3431458 9.6568542,3 8,3 z M 8,4 C 9.1045682,4 10,4.8954318 10,6 10,7.1045682 9.1045682,8 8,8 6.8954318,8 6,7.1045682 6,6 6,4.8954318 6.8954318,4 8,4 z m 2,8 0,1 1,0 0,-1 z"
     id="rect3002"
     inkscape:connector-curvature="0"
     sodipodi:nodetypes="ssssssssssssssssssssssssssssccccc" />
</svg>

<?xml version="1.0" encoding="UTF-8"?>
<!-- Created with Inkscape (http://www.inkscape.org/) -->
<svg width="16" height="16" version="1.1" xmlns="http://www.w3.org/2000/svg" xmlns:cc="http://creativecommons.org/ns#" xmlns:dc="http://purl.org/dc/elements/1.1/" xmlns:rdf="http://www.w3.org/1999/02/22-rdf-syntax-ns#">
	<defs>
		<radialGradient id="a" cx="291.08" cy="-95.026" r="7.254" gradientTransform="matrix(2.6192 0 0 2.6932 -754.41 268.93)" gradientUnits="userSpaceOnUse">
			<stop stop-color="#213851" stop-opacity=".9059" offset="0"/>
			<stop stop-color="#27303a" stop-opacity="0" offset="1"/>
		</radialGradient>
		<radialGradient id="b" cx="7800.1" cy="-3926.4" r="6.5" gradientTransform="matrix(-7.7857e-6,1.8461,-2,-1.5122e-5,-7844.7,-14397)" gradientUnits="userSpaceOnUse">
			<stop stop-color="#ffffff" stop-opacity=".74858" offset="0"/>
			<stop stop-color="#ffffff" stop-opacity=".60511" offset="1"/>
		</radialGradient>
	</defs>
	<metadata>
		<rdf:RDF>
			<cc:Work rdf:about="">
				<dc:format>image/svg+xml</dc:format>
				<dc:type rdf:resource="http://purl.org/dc/dcmitype/StillImage"/>
				<dc:title/>
			</cc:Work>
		</rdf:RDF>
	</metadata>
	<path d="m5 1c-1.108 0-2 0.892-2 2v10c0 1.108 0.892 2 2 2h6c1.108 0 2-0.892 2-2v-10c0-1.108-0.892-2-2-2zm3 2c1.6569 0 3 1.3431 3 3s-1.3431 3-3 3-3-1.3431-3-3 1.3431-3 3-3zm0 2c-0.55228 0-1 0.44772-1 1s0.44772 1 1 1 1-0.44772 1-1-0.44772-1-1-1zm2 7h1v1h-1z" color="#000000" fill="#090d11" fill-opacity=".76621" style="font-variant-east_asian:normal;paint-order:normal"/>
	<path d="m5 1c-1.108 0-2 0.892-2 2v10c0 1.108 0.892 2 2 2h6c1.108 0 2-0.892 2-2v-10c0-1.108-0.892-2-2-2h-6zm3 2c1.6569 0 3 1.3431 3 3s-1.3431 3-3 3-3-1.3431-3-3 1.3431-3 3-3zm0 2c-0.55228 0-1 0.44772-1 1s0.44772 1 1 1 1-0.44772 1-1-0.44772-1-1-1zm2 7h1v1h-1v-1z" color="#000000" fill="url(#a)" fill-opacity=".7533" style="font-variant-east_asian:normal;paint-order:normal"/>
	<path d="m5 0c-1.6447 0-3 1.3553-3 3v10c0 1.6447 1.3553 3 3 3h6c1.6447 0 3-1.3553 3-3v-10c0-1.6447-1.3553-3-3-3zm0 1h6c1.108 0 2 0.892 2 2v10c0 1.108-0.892 2-2 2h-6c-1.108 0-2-0.892-2-2v-10c0-1.108 0.892-2 2-2zm3 2c-1.6569 0-3 1.3431-3 3s1.3431 3 3 3 3-1.3431 3-3-1.3431-3-3-3zm0 2c0.55228 0 1 0.44772 1 1s-0.44772 1-1 1-1-0.44772-1-1 0.44772-1 1-1zm2 7v1h1v-1z" color="#000000" fill="url(#b)" style="paint-order:normal;text-decoration-line:none;text-indent:0;text-transform:none"/>
</svg>
